!!!COM:	de Orto, Marbrianus
!!!CDT:	~1460///-1529//
!!!OPR:	Missa [Ad fugam]
!!!ONM:	5
!!!OTL:	Agnus Dei
!!!AGN:	Mass; Agnus Dei
!!!SCT:	Ort1006e
!!!SCA:	Ort1006e
!!!voices-OPR:	4
!!!voices:	4
**kern	**text	**text	**kern	**text	**text	**kern	**text	**text	**kern	**text	**text
*staff4	*staff4	*staff4	*staff3	*staff3	*staff3	*staff2	*staff2	*staff2	*staff1	*staff1	*staff1
*Ivox	*	*	*Ivox	*	*	*Ivox	*	*	*Ivox	*	*
*I"Bassus	*	*	*I"Tenor	*	*	*I"Altus	*	*	*I"Discantus	*	*
*I'B	*	*	*I'T	*	*	*I'A	*	*	*I'D	*	*
*>[A,B,A]	*>[A,B,A]	*>[A,B,A]	*>[A,B,A]	*>[A,B,A]	*>[A,B,A]	*>[A,B,A]	*>[A,B,A]	*>[A,B,A]	*>[A,B,A]	*>[A,B,A]	*>[A,B,A]
*>A	*>A	*>A	*>A	*>A	*>A	*>A	*>A	*>A	*>A	*>A	*>A
*clefF4	*	*	*clefGv2	*	*	*clefGv2	*	*	*clefG2	*	*
*k[b-]	*	*	*k[b-e-]	*	*	*k[b-]	*	*	*k[b-]	*	*
*M3/1	*	*	*M3/1	*	*	*M3/1	*	*	*M3/1	*	*
*met(O)	*	*	*met(O)	*	*	*met(O)	*	*	*met(O)	*	*
!!section: Agnus Dei I/III
!!!OMD: Agnus Dei I/III
!	!	!	!LO:TX:Z=8:t=(Tenor flat signature is editorial.)	!	!	!	!	!	!	!	!
=1-	=1-	=1-	=1-	=1-	=1-	=1-	=1-	=1-	=1-	=1-	=1-
!	!	!	!	!	!	!	!	!	!LO:TX:Z=8:t=Canon at the lower fifth (one breve)	!	!
1G	A-	.	0.r	.	.	1r	.	.	0.r	.	.
2B-\	.	.	.	.	.	1r	.	.	.	.	.
2A\	.	.	.	.	.	.	.	.	.	.	.
1G	.	.	.	.	.	1d	A-	.	.	.	.
=2	=2	=2	=2	=2	=2	=2	=2	=2	=2	=2	=2
1C	.	.	0.r	.	.	1e	.	.	0g	A-	.
1G	.	.	.	.	.	0d	-gnus	.	.	.	.
1G	-gnus	.	.	.	.	.	.	.	1b-	.	.
=3	=3	=3	=3	=3	=3	=3	=3	=3	=3	=3	=3
1F	De-	.	0c	A-	.	2r	.	.	1a	.	.
.	.	.	.	.	.	1c	A-	.	.	.	.
1E-	.	.	.	.	.	.	.	.	0g	-gnus	.
.	.	.	.	.	.	2G/	.	.	.	.	.
1C	.	.	1e-	.	.	1c	.	.	.	.	.
=4	=4	=4	=4	=4	=4	=4	=4	=4	=4	=4	=4
1D	.	.	1d	.	.	0A	.	.	2f/	De-	.
.	.	.	.	.	.	.	.	.	1a	.	.
0AA	.	.	0c	-gnus	.	.	.	.	.	.	.
.	.	.	.	.	.	.	.	.	4g/	.	.
.	.	.	.	.	.	.	.	.	4f/	.	.
.	.	.	.	.	.	1A	-gnus	.	1e	.	.
=5	=5	=5	=5	=5	=5	=5	=5	=5	=5	=5	=5
1.BB-	.	.	2B-\	De-	.	2F/	De-	.	2.d/	.	.
.	.	.	1d	.	.	2G/	.	.	.	.	.
.	.	.	.	.	.	.	.	.	4e/	.	.
.	.	.	.	.	.	2D/	.	.	2f/	.	.
2GG/	.	.	4c\	.	.	1d	-i,	.	1g	.	.
.	.	.	4B-\	.	.	.	.	.	.	.	.
1D	.	.	1A	.	.	.	.	.	.	.	.
.	.	.	.	.	.	2d\	A-	.	2f#i/	.	.
=6	=6	=6	=6	=6	=6	=6	=6	=6	=6	=6	=6
2GG/	-i,	.	2.G/	.	.	2.B-\	.	.	1g	-i,	.
1G	A-	.	.	.	.	.	.	.	.	.	.
.	.	.	4A/	.	.	4c\	.	.	.	.	.
.	.	.	2B-\	.	.	4d\	.	.	1r	.	.
.	.	.	.	.	.	4e\	.	.	.	.	.
2F\	.	.	1c	.	.	1f	.	.	.	.	.
1G	.	.	.	.	.	.	.	.	1r	.	.
.	.	.	2B-\	.	.	2e\	.	.	.	.	.
=7	=7	=7	=7	=7	=7	=7	=7	=7	=7	=7	=7
0F	.	.	1c	-i,	.	1.f	.	.	0a	A-	.
.	.	.	1r	.	.	.	.	.	.	.	.
.	.	.	.	.	.	2d\	.	.	.	.	.
2F\	-gnus	.	1r	.	.	2c\	-gnus	.	1a	-gnus	.
[2D\	De-	.	.	.	.	[2f\	De-	.	.	.	.
=8	=8	=8	=8	=8	=8	=8	=8	=8	=8	=8	=8
2D\]	.	.	0d	A-	.	2f\]	.	.	1a	De-	.
2F\	.	.	.	.	.	2f\	.	.	.	.	.
1G	.	.	.	.	.	2B-\	.	.	1b-	.	.
.	.	.	.	.	.	2G/	.	.	.	.	.
2D\	.	.	1d	-gnus	.	2F/	.	.	2a/	.	.
2BB-/	.	.	.	.	.	2G/	.	.	2b-\	.	.
=9	=9	=9	=9	=9	=9	=9	=9	=9	=9	=9	=9
1F	.	.	1d	De-	.	2D/	.	.	1a	.	.
.	.	.	.	.	.	2A/	.	.	.	.	.
1C	.	.	1e-	.	.	1c	-i,	.	1g	-i,	.
2BB-/	.	.	2d\	.	.	2r	.	.	2r	.	.
2C/	.	.	2e-\	.	.	[2G/	qui	.	[2cc\	qui	.
=10	=10	=10	=10	=10	=10	=10	=10	=10	=10	=10	=10
1GG	-i,	.	1d	.	.	1G]	.	.	2cc\]	.	.
.	.	.	.	.	.	.	.	.	2b-\	.	.
2r	.	.	1c	-i,	.	2A/	tol-	.	1cc	tol-	.
2C/	qui	.	.	.	.	2G/	.	.	.	.	.
1D	.	.	2r	.	.	1F	.	.	1a	-lis,	.
.	.	.	[2f\	qui	.	.	.	.	.	.	.
=11	=11	=11	=11	=11	=11	=11	=11	=11	=11	=11	=11
2F\	tol-	.	2f\]	.	.	2A/	.	.	1r	.	.
2G\	.	.	2e-\	.	.	2B-\	.	.	.	.	.
1F	.	.	1f	tol-	.	1c	.	.	1a	qui	.
2G\	.	.	1d	-lis,	.	2B-\	.	.	2b-\	tol-	.
2D\	.	.	.	.	.	2f\	.	.	2a/	.	.
=12	=12	=12	=12	=12	=12	=12	=12	=12	=12	=12	=12
1G	.	.	1r	.	.	1d	-lis,	.	2g/	.	.
.	.	.	.	.	.	.	.	.	2b-\	.	.
1F	.	.	1d	qui	.	2r	.	.	1a	-lis,	.
.	.	.	.	.	.	2A/	qui	.	.	.	.
2E-\	.	.	2e-\	tol-	.	2B-\	tol-	.	2r	.	.
[2F\	.	.	2d\	.	.	2A/	.	.	[2a/	pec-	.
=13	=13	=13	=13	=13	=13	=13	=13	=13	=13	=13	=13
2F\]	.	.	2c\	.	.	2F/	.	.	2a/]	.	.
2C/	.	.	2e-\	.	.	2c\	.	.	2g/	.	.
1D	.	.	1d	-lis,	.	1A	.	.	2f/	.	.
.	.	.	.	.	.	.	.	.	2.a/	-ca-	.
1D	-lis	.	2r	.	.	2.F/	.	.	.	.	.
.	.	.	.	.	.	.	.	.	4g/	.	.
.	.	.	[2d\	pec-	.	.	.	.	2f/	.	.
.	.	.	.	.	.	4D/	.	.	.	.	.
=14	=14	=14	=14	=14	=14	=14	=14	=14	=14	=14	=14
1AA	.	.	2d\]	.	.	1A	-lis	.	1e	.	.
.	.	.	2c\	.	.	.	.	.	.	.	.
1r	.	.	2B-\	.	.	2r	.	.	1d	-ta,	.
.	.	.	2.d\	-ca-	.	2.f\	pec-	.	.	.	.
1r	.	.	.	.	.	.	.	.	2r	.	.
.	.	.	4c\	.	.	4d\	.	.	.	.	.
.	.	.	2B-\	.	.	[2g\	.	.	[2d/	pec-	.
=15	=15	=15	=15	=15	=15	=15	=15	=15	=15	=15	=15
1r	.	.	1A	.	.	2g\]	.	.	2d/]	.	.
.	.	.	.	.	.	2f#i\	.	.	2c/	.	.
1GG	pec-	.	1G	-ta,	.	1g	-ca-	.	2B-/	.	.
.	.	.	.	.	.	.	.	.	2.d/	-ca-	.
2BB-/	-ca-	.	2r	.	.	[1d	-ta	.	.	.	.
.	.	.	.	.	.	.	.	.	4c/	.	.
2GG/	.	.	[2G/	pec-	.	.	.	.	2B-/	.	.
=16	=16	=16	=16	=16	=16	=16	=16	=16	=16	=16	=16
1D	.	.	2G/]	.	.	1d]	.	.	1A	-ta	.
.	.	.	2F/	.	.	.	.	.	.	.	.
1C	.	.	2E-/	.	.	2r	.	.	1r	.	.
.	.	.	2.G/	-ca-	.	2.e-i\	mun-	.	.	.	.
1G	.	.	.	.	.	.	.	.	2r	.	.
.	.	.	4F/	.	.	4d\	.	.	.	.	.
.	.	.	2E-/	.	.	2c\	.	.	[2g/	mun-	.
=17	=17	=17	=17	=17	=17	=17	=17	=17	=17	=17	=17
2.A\	.	.	1D	-ta,	.	1d	-di,	.	2g/]	.	.
.	.	.	.	.	.	.	.	.	2f/	.	.
4B-\	.	.	.	.	.	.	.	.	.	.	.
2.c\	.	.	1r	.	.	2r	.	.	2e/	.	.
.	.	.	.	.	.	2e\	mun-	.	2.g/	.	.
4B-\	.	.	.	.	.	.	.	.	.	.	.
2G\	.	.	2r	.	.	2d\	.	.	.	.	.
.	.	.	.	.	.	.	.	.	4f/	.	.
2C/	-ta	.	[2c\	mun-	.	[2g\	.	.	2e/	.	.
=18	=18	=18	=18	=18	=18	=18	=18	=18	=18	=18	=18
1G	mun-	.	2c\]	.	.	4g\]	.	.	1d	-di,	.
.	.	.	.	.	.	4f\	.	.	.	.	.
.	.	.	2B-\	.	.	4d\	.	.	.	.	.
.	.	.	.	.	.	4e\	.	.	.	.	.
1F	-di,	.	2A/	.	.	1f	.	.	1r	.	.
.	.	.	2.c\	.	.	.	.	.	.	.	.
1r	.	.	.	.	.	2e\	.	.	2r	.	.
.	.	.	4B-\	.	.	.	.	.	.	.	.
.	.	.	2A/	.	.	2c\	.	.	[2cc\	mi-	do-
=19	=19	=19	=19	=19	=19	=19	=19	=19	=19	=19	=19
1r	.	.	1G	-di,	.	1d	-di,	.	2cc\]	.	.
.	.	.	.	.	.	.	.	.	2b-\	.	.
0F	mi-	do-	1r	.	.	2.c\	mi-	do-	2a/	-se-	.
.	.	.	.	.	.	.	.	.	2.cc\	-re-	.
.	.	.	.	.	.	4B-\	.	.	.	.	.
.	.	.	2r	.	.	4A/	.	.	.	.	.
.	.	.	.	.	.	4G/	.	.	4b-\	.	.
.	.	.	[2f\	mi-	do-	2F/	-se-	-na	2a/	.	.
=20	=20	=20	=20	=20	=20	=20	=20	=20	=20	=20	=20
1C	-se-	.	2f\]	.	.	2c\	-re-	no-	1g	-re,	-na,
.	.	.	2e-\	.	.	2G/	.	.	.	.	.
0BB-	-re-	.	2d\	-se-	.	2B-\	.	.	1r	.	.
.	.	.	2.f\	-re-	.	2.d\	.	.	.	.	.
.	.	.	.	.	.	.	.	.	2r	.	.
.	.	.	4e-\	.	.	4c\	.	.	.	.	.
.	.	.	2d\	.	.	2B-\	.	.	[2b-\	mi-	do-
=21	=21	=21	=21	=21	=21	=21	=21	=21	=21	=21	=21
1F	.	.	1c	-re,	-na	2F/	.	.	2b-\]	.	.
.	.	.	.	.	.	2f\	.	.	2a/	-se-	.
2G\	.	.	1r	.	.	1d	.	.	2g/	-re-	.
2D\	.	.	.	.	.	.	.	.	2f/	.	.
2E-\	.	.	2r	.	.	2B-\	.	.	1g	-re	-na
2C/	-re	-na	[2e-\	mi-	no-	[2c\	.	.	.	.	.
=22	=22	=22	=22	=22	=22	=22	=22	=22	=22	=22	=22
2r	.	.	2e-\]	.	.	2c\]	.	.	2r	.	.
2D\	no-	no-	2d\	-se-	.	2A/	.	.	2f/	no-	no-
1E-i	.	.	2c\	-re-	.	1G	-re	-bis	2.g/	.	.
.	.	.	2B-\	.	.	.	.	.	.	.	.
.	.	.	.	.	.	.	.	.	4f/	.	.
1C	.	-bis	1c	-re	-bis	2.G/	no-	pa-	1e	.	-bis
.	.	.	.	.	.	4A/	.	.	.	.	.
=23	=23	=23	=23	=23	=23	=23	=23	=23	=23	=23	=23
2G\	.	pa-	2r	.	.	4B-\	.	.	4d/	.	pa-
.	.	.	.	.	.	4c\	.	.	4e/	.	.
4D\	.	.	2B-\	no-	pa-	4d\	.	.	4f/	.	.
4G\	.	.	.	.	.	4e\	.	.	4g/	.	.
2F\	.	.	2.c\	.	.	2f\	.	.	2a/	.	.
2C/	.	.	.	.	.	2e\	.	.	1g	.	.
.	.	.	4B-\	.	.	.	.	.	.	.	.
1D	.	.	1A	.	.	[1dl	-bis.	-cem.	.	.	.
.	.	.	.	.	.	.	.	.	2f#i/	.	.
=24	=24	=24	=24	=24	=24	=24	=24	=24	=24	=24	=24
0.GGl	-bis.	-cem.	0.Gl	-bis.	-cem.	0.d]	.	.	0.gl	-bis.	-cem.
!!LO:LB:i:g=z
=25||	=25||	=25||	=25||	=25||	=25||	=25||	=25||	=25||	=25||	=25||	=25||
*>B	*>B	*>B	*>B	*>B	*>B	*>B	*>B	*>B	*>B	*>B	*>B
*clefF4	*	*	*clefGv2	*	*	*clefGv2	*	*	*clefG2	*	*
*k[b-]	*	*	*k[b-e-]	*	*	*k[b-]	*	*	*k[b-]	*	*
*M2/1	*	*	*M2/1	*	*	*M2/1	*	*	*M2/1	*	*
*met(C|)	*	*	*met(C|)	*	*	*met(C|)	*	*	*met(C|)	*	*
!	!	!	!	!	!	!	!	!	!LO:TX:Z=8:t=Canon at the lower fifth (three minims)	!	!
!!section: Agnus Dei II
!!!OMD: Agnus Dei II
0D	A-	.	0r	.	.	1A	A-	.	0r	.	.
.	.	.	.	.	.	1B-	.	.	.	.	.
=26	=26	=26	=26	=26	=26	=26	=26	=26	=26	=26	=26
1F	.	.	0r	.	.	2.A/	.	.	0r	.	.
.	.	.	.	.	.	4B-\	.	.	.	.	.
2E\	.	.	.	.	.	2c\	.	.	.	.	.
2D\	.	.	.	.	.	[2d\	.	.	.	.	.
=27	=27	=27	=27	=27	=27	=27	=27	=27	=27	=27	=27
1G	.	.	0r	.	.	2d\]	.	.	0r	.	.
.	.	.	.	.	.	4c\	.	.	.	.	.
.	.	.	.	.	.	4B-\	.	.	.	.	.
2.D\	.	.	.	.	.	2A/	.	.	.	.	.
.	.	.	.	.	.	2B-\	.	.	.	.	.
4E\	.	.	.	.	.	.	.	.	.	.	.
=28	=28	=28	=28	=28	=28	=28	=28	=28	=28	=28	=28
2F\	-gnus	.	0r	.	.	2A/	-gnus	.	0r	.	.
1G	De-	.	.	.	.	1B-	De-	.	.	.	.
4F\	.	.	.	.	.	4A/	.	.	.	.	.
4E\	.	.	.	.	.	4G/	.	.	.	.	.
=29	=29	=29	=29	=29	=29	=29	=29	=29	=29	=29	=29
2D\	.	.	0r	.	.	2F/	.	.	0r	.	.
4C/	.	.	.	.	.	2G/	.	.	.	.	.
4BB-/	.	.	.	.	.	.	.	.	.	.	.
2AA/	.	.	.	.	.	2F/	.	.	.	.	.
2BB-/	.	.	.	.	.	2G/	-i,	.	.	.	.
=30	=30	=30	=30	=30	=30	=30	=30	=30	=30	=30	=30
2AA/	.	.	0r	.	.	2r	.	.	0r	.	.
1BB-	.	.	.	.	.	2G/	A-	.	.	.	.
.	.	.	.	.	.	2F/	-gnus	.	.	.	.
2GG/	.	.	.	.	.	[2G/	De-	.	.	.	.
=31	=31	=31	=31	=31	=31	=31	=31	=31	=31	=31	=31
1G	-i,	.	0r	.	.	4G/]	.	.	0r	.	.
.	.	.	.	.	.	4A/	.	.	.	.	.
.	.	.	.	.	.	2B-\	.	.	.	.	.
2F\	De-	.	.	.	.	2A/	.	.	.	.	.
4E\	.	.	.	.	.	[2c\	.	.	.	.	.
4D\	.	.	.	.	.	.	.	.	.	.	.
=32	=32	=32	=32	=32	=32	=32	=32	=32	=32	=32	=32
2C/	.	.	0r	.	.	4c\]	.	.	0r	.	.
.	.	.	.	.	.	4B-\	.	.	.	.	.
2BB-/	.	.	.	.	.	4A/	.	.	.	.	.
.	.	.	.	.	.	4G/	.	.	.	.	.
1AA	.	.	.	.	.	2.F#i/	.	.	.	.	.
.	.	.	.	.	.	4E/	.	.	.	.	.
=33	=33	=33	=33	=33	=33	=33	=33	=33	=33	=33	=33
1GG	-i,	.	1r	.	.	2G/	-i,	.	1d	A-	.
.	.	.	.	.	.	2B-\	A-	.	.	.	.
1C	.	.	2r	.	.	2A/	.	.	1e	.	.
.	.	.	[2G/	A-	.	2G/	.	.	.	.	.
=34	=34	=34	=34	=34	=34	=34	=34	=34	=34	=34	=34
2r	.	.	2G/]	.	.	2B-\	.	.	2.d/	.	.
1D	De-	.	1A	.	.	2A/	.	.	.	.	.
.	.	.	.	.	.	.	.	.	4e/	.	.
.	.	.	.	.	.	2d\	.	.	2f/	.	.
2E-\	.	.	[2G/	.	.	[2B-\	.	.	2g/	.	.
=35	=35	=35	=35	=35	=35	=35	=35	=35	=35	=35	=35
1G	.	.	4G/]	.	.	4B-\]	.	.	1d	-gnus	.
.	.	.	4A/	.	.	4c\	.	.	.	.	.
.	.	.	2B-\	.	.	4d\	.	.	.	.	.
.	.	.	.	.	.	4e\	.	.	.	.	.
2F\	.	.	2c\	.	.	2f\	.	.	2r	.	.
[2B-\	.	.	[2G/	-gnus	.	2d\	.	.	2g/	De-	.
=36	=36	=36	=36	=36	=36	=36	=36	=36	=36	=36	=36
2B-\]	.	.	2G/]	.	.	1d	-gnus	.	1b-	.	.
2G\	.	.	2r	.	.	.	.	.	.	.	.
2F\	.	.	2c\	De-	.	2A/	De-	.	2a/	.	.
2E-\	.	.	[2e-\	.	.	2B-\	.	.	[2g/	.	.
=37	=37	=37	=37	=37	=37	=37	=37	=37	=37	=37	=37
2C/	.	.	2e-\]	.	.	4c\	.	.	2g/]	.	.
.	.	.	.	.	.	4B-\	.	.	.	.	.
1F	.	.	2d\	.	.	4A/	.	.	1a	.	.
.	.	.	.	.	.	4G/	.	.	.	.	.
.	.	.	1c	.	.	2F/	.	.	.	.	.
2E-i\	.	.	.	.	.	2G/	.	.	2g/	.	.
=38	=38	=38	=38	=38	=38	=38	=38	=38	=38	=38	=38
1D	-i,	.	1d	.	.	1A	-i,	.	1f	.	.
1r	.	.	2c\	.	.	2r	.	.	1g	-i,	.
.	.	.	[2B-\	.	.	[2G/	A-	.	.	.	.
=39	=39	=39	=39	=39	=39	=39	=39	=39	=39	=39	=39
1.E-i	A-	.	2B-\]	.	.	2G/]	.	.	1r	.	.
.	.	.	1c	-i,	.	1C	.	.	.	.	.
.	.	.	.	.	.	.	.	.	[1g	A-	.
2C/	.	.	2r	.	.	2G/	.	.	.	.	.
=40	=40	=40	=40	=40	=40	=40	=40	=40	=40	=40	=40
1.C	.	.	2r	.	.	2E/	.	.	1g]	.	.
.	.	.	[1.c	A-	.	2G/	.	.	.	.	.
.	.	.	.	.	.	2.A/	.	.	[1e	.	.
2AA/	.	.	.	.	.	.	.	.	.	.	.
.	.	.	.	.	.	4G/	.	.	.	.	.
=41	=41	=41	=41	=41	=41	=41	=41	=41	=41	=41	=41
1AA	-gnus	.	2c\]	.	.	2E/	.	.	1e]	.	.
.	.	.	[1.A	.	.	1c	.	.	.	.	.
1AA	De-	.	.	.	.	.	.	.	[1a	.	.
.	.	.	.	.	.	2c\	-gnus	.	.	.	.
=42	=42	=42	=42	=42	=42	=42	=42	=42	=42	=42	=42
1.D	.	.	2A/]	.	.	2d\	De-	.	1a]	.	.
.	.	.	[1.d	.	.	1f	.	.	.	.	.
.	.	.	.	.	.	.	.	.	[1f	-gnus,	.
2BB-/	.	.	.	.	.	[2d\	.	.	.	.	.
=43	=43	=43	=43	=43	=43	=43	=43	=43	=43	=43	=43
1BB-	.	.	2d\]	.	.	2d\]	.	.	1f]	.	.
.	.	.	[1.B-	-gnus,	.	4G/	.	.	.	.	.
.	.	.	.	.	.	4A/	.	.	.	.	.
2GG/	-i,	.	.	.	.	4B-\	.	.	2r	.	.
.	.	.	.	.	.	4c\	.	.	.	.	.
[2BB-/	A-	.	.	.	.	[2d\	.	.	[2f/	A-	.
=44	=44	=44	=44	=44	=44	=44	=44	=44	=44	=44	=44
4BB-/]	.	.	2B-\]	.	.	4d\]	.	.	4f/]	.	.
4C/	.	.	.	.	.	4e\	.	.	4e/	.	.
2D\	.	.	2r	.	.	2f\	.	.	2d/	.	.
2E-i\	.	.	2.B-\	A-	.	1B-	-i,	.	2g/	.	.
2D\	.	.	.	.	.	.	.	.	2f/	.	.
.	.	.	4A/	.	.	.	.	.	.	.	.
=45	=45	=45	=45	=45	=45	=45	=45	=45	=45	=45	=45
2E-i\	.	.	2G/	.	.	2B-\	A-	.	2g/	.	.
2C/	.	.	2c\	.	.	2c\	.	.	2e/	-gnus	.
2G\	-gnus	.	2B-\	.	.	2d\	.	.	2r	.	.
[2F\	De-	.	2c\	.	.	[2f\	.	.	[2a/	De-	.
=46	=46	=46	=46	=46	=46	=46	=46	=46	=46	=46	=46
4F\]	.	.	2A/	-gnus	.	2f\]	.	.	4a/]	.	.
4E-i\	.	.	.	.	.	.	.	.	4g/	.	.
4D\	.	.	2r	.	.	2f\	-gnus	.	2f/	.	.
4C/	.	.	.	.	.	.	.	.	.	.	.
2BB-/	.	.	2.d\	De-	.	2.f\	De-	.	2b-\	.	.
2F\	.	.	.	.	.	.	.	.	2a/	.	.
.	.	.	4c\	.	.	4e\	.	.	.	.	.
=47	=47	=47	=47	=47	=47	=47	=47	=47	=47	=47	=47
1G	-i,	.	2B-\	.	.	4d\	.	.	2b-\	.	.
.	.	.	.	.	.	4c\	.	.	.	.	.
.	.	.	2e-\	.	.	1B-	.	.	2g/	-i,	.
2r	.	.	2d\	.	.	.	.	.	1r	.	.
2C/	qui	.	2e-\	.	.	2c\	.	.	.	.	.
=48	=48	=48	=48	=48	=48	=48	=48	=48	=48	=48	=48
1E-i	tol-	.	2c\	-i,	.	2.G/	.	.	0r	.	.
.	.	.	2r	.	.	.	.	.	.	.	.
.	.	.	.	.	.	4A/	.	.	.	.	.
2D\	.	.	1r	.	.	2.B-\	.	.	.	.	.
[2G\	.	.	.	.	.	.	.	.	.	.	.
.	.	.	.	.	.	4c\	.	.	.	.	.
=49	=49	=49	=49	=49	=49	=49	=49	=49	=49	=49	=49
2G\]	.	.	0r	.	.	2.d\	.	.	0r	.	.
2F\	.	.	.	.	.	.	.	.	.	.	.
.	.	.	.	.	.	4c\	.	.	.	.	.
2B-\	.	.	.	.	.	4d\	.	.	.	.	.
.	.	.	.	.	.	4e\	.	.	.	.	.
2A\	.	.	.	.	.	[2f\	.	.	.	.	.
=50	=50	=50	=50	=50	=50	=50	=50	=50	=50	=50	=50
2B-\	.	.	0r	.	.	2f\]	.	.	0r	.	.
2G\	.	.	.	.	.	1g	.	.	.	.	.
1A	.	.	.	.	.	.	.	.	.	.	.
.	.	.	.	.	.	2f#i\	.	.	.	.	.
=51	=51	=51	=51	=51	=51	=51	=51	=51	=51	=51	=51
1G	.	.	1r	.	.	1g	-i,	.	0b-	qui	.
1E-	-lis	.	2r	.	.	2.G/	qui	.	.	.	.
.	.	.	[2e-\	qui	.	.	.	.	.	.	.
.	.	.	.	.	.	4A/	.	.	.	.	.
=52	=52	=52	=52	=52	=52	=52	=52	=52	=52	=52	=52
1r	.	.	1.e-]	.	.	2B-\	.	.	0g	tol-	.
.	.	.	.	.	.	1c	tol-	.	.	.	.
2C/	qui	.	.	.	.	.	.	.	.	.	.
[2C/	tol-	.	[2c\	tol-	.	[2G/	.	.	.	.	.
=53	=53	=53	=53	=53	=53	=53	=53	=53	=53	=53	=53
2C/]	.	.	1.c]	.	.	2G/]	.	.	0cc	.	.
1C	-lis	.	.	.	.	1c	.	.	.	.	.
[2F\	pec-	.	[2f\	.	.	2A/	.	.	.	.	.
=54	=54	=54	=54	=54	=54	=54	=54	=54	=54	=54	=54
1F]	.	.	1.f]	.	.	1d	-lis	.	0a	-lis	.
2D\	.	.	.	.	.	4d\	pec-	.	.	.	.
.	.	.	.	.	.	4c\	.	.	.	.	.
4D\	-ca-	.	[2d\	-lis	.	4B-\	.	.	.	.	.
4C/	.	.	.	.	.	4A/	.	.	.	.	.
=55	=55	=55	=55	=55	=55	=55	=55	=55	=55	=55	=55
4BB-/	.	.	1.d]	.	.	1B-	.	.	2r	.	.
4AA/	.	.	.	.	.	.	.	.	.	.	.
2GG/	.	.	.	.	.	.	.	.	2d/	pec-	.
1D	.	.	.	.	.	2A/	-ca-	.	1f	.	.
.	.	.	2r	.	.	2B-\	.	.	.	.	.
=56	=56	=56	=56	=56	=56	=56	=56	=56	=56	=56	=56
2C/	.	.	2G/	pec-	.	2c\	.	.	2e/	-ca-	.
2BB-/	.	.	1B-	.	.	2F/	.	.	1d	.	.
2GG/	.	.	.	.	.	2G/	-ta	.	.	.	.
[2C/	.	.	2A/	-ca-	.	2r	.	.	[2e/	.	.
=57	=57	=57	=57	=57	=57	=57	=57	=57	=57	=57	=57
2C/]	.	.	1G	.	.	2c\	mun-	.	2e/]	.	.
2BB-/	.	.	.	.	.	2d\	.	.	2d/	.	.
1AA	-ta	.	1A	.	.	1c	.	.	2e/	.	.
.	.	.	.	.	.	.	.	.	2c/	.	.
=58	=58	=58	=58	=58	=58	=58	=58	=58	=58	=58	=58
2r	.	.	2G/	.	.	2B-\	.	.	2d/	.	.
2.D\	mun-	.	2A/	.	.	1F	.	.	1f	.	.
.	.	.	2F/	.	.	.	.	.	.	.	.
4C/	.	.	.	.	.	.	.	.	.	.	.
4BB-/	.	.	2G/	.	.	[2B-\	.	.	2d/	.	.
4AA/	.	.	.	.	.	.	.	.	.	.	.
=59	=59	=59	=59	=59	=59	=59	=59	=59	=59	=59	=59
1.GG	.	.	1B-	.	.	4B-\]	.	.	1d	-ta	.
.	.	.	.	.	.	4c\	.	.	.	.	.
.	.	.	.	.	.	1d	.	.	.	.	.
.	.	.	2G/	.	.	.	.	.	[1g	mun-	.
[2C/	.	.	[2G/	-ta	.	[2c\	.	.	.	.	.
=60	=60	=60	=60	=60	=60	=60	=60	=60	=60	=60	=60
1C]	.	.	2G/]	.	.	4c\]	.	.	2g/]	.	.
.	.	.	.	.	.	4B-\	.	.	.	.	.
.	.	.	1.c	mun-	.	2G/	.	.	2e/	.	.
[1AA	.	.	.	.	.	2.A/	.	.	1e	-di,	.
.	.	.	.	.	.	4B-\	.	.	.	.	.
=61	=61	=61	=61	=61	=61	=61	=61	=61	=61	=61	=61
2AA/]	.	.	2A/	.	.	2c\	-di,	.	2r	.	.
2D\	.	.	1A	-di,	.	2F/	pec-	.	2f/	pec-	.
2C/	.	.	.	.	.	2c\	-ca-	.	2e/	-ca-	.
4BB-/	.	.	2r	.	.	[2d\	.	.	2d/	.	.
4C/	.	.	.	.	.	.	.	.	.	.	.
=62	=62	=62	=62	=62	=62	=62	=62	=62	=62	=62	=62
1D	.	.	2B-\	pec-	.	2d\]	.	.	1f	-ta	.
.	.	.	2A/	-ca-	.	2d\	-ta	.	.	.	.
1E-i	.	.	2G/	.	.	2.B-\	mun-	.	2r	.	.
.	.	.	[2B-\	-ta	.	.	.	.	2g/	mun-	.
.	.	.	.	.	.	4c\	.	.	.	.	.
=63	=63	=63	=63	=63	=63	=63	=63	=63	=63	=63	=63
2D\	.	.	2B-\]	.	.	2d\	.	.	2f/	.	.
2C/	.	.	2r	.	.	2e-\	.	.	2g/	.	.
2F\	.	.	2c\	mun-	.	2f\	.	.	2a/	.	.
2G\	.	.	2B-\	.	.	2B-\	.	.	2d/	-di,	.
=64	=64	=64	=64	=64	=64	=64	=64	=64	=64	=64	=64
2F\	.	.	2c\	.	.	1f	-di,	.	1r	.	.
2D\	.	.	2d\	.	.	.	.	.	.	.	.
2G\	.	.	2G/	-di,	.	2B-\	mi-	.	4d/	mi-	.
.	.	.	.	.	.	.	.	.	4e/	.	.
2D\	.	.	2r	.	.	[2f\	.	.	4f/	.	.
.	.	.	.	.	.	.	.	.	4g/	.	.
=65	=65	=65	=65	=65	=65	=65	=65	=65	=65	=65	=65
2F\	.	.	2r	.	.	2f\]	.	.	2a/	-se-	.
1G	.	.	4G/	mi-	.	2.d\	.	.	1b-	-re-	.
.	.	.	4A/	.	.	.	.	.	.	.	.
.	.	.	4B-\	.	.	.	.	.	.	.	.
.	.	.	4c\	.	.	4e\	.	.	.	.	.
2F\	.	.	2d\	-se-	.	2f\	-se-	.	2a/	.	.
=66	=66	=66	=66	=66	=66	=66	=66	=66	=66	=66	=66
1C	.	.	1e-	-re-	.	2g\	-re-	.	2cc\	.	.
.	.	.	.	.	.	1G	.	.	4b-\	.	.
.	.	.	.	.	.	.	.	.	4a/	.	.
2G\	.	.	2d\	.	.	.	.	.	2b-\	.	.
2F\	.	.	2f\	.	.	2c\	.	.	2a/	-re,	.
=67	=67	=67	=67	=67	=67	=67	=67	=67	=67	=67	=67
1G	.	.	4e-\	.	.	1B-	-re,	.	2r	.	.
.	.	.	4d\	.	.	.	.	.	.	.	.
.	.	.	2e-\	.	.	.	.	.	2g/	no-	.
1G	-di,	.	2d\	-re,	.	2r	.	.	2b-\	.	.
.	.	.	2r	.	.	2B-\	mi-	.	4a/	.	.
.	.	.	.	.	.	.	.	.	4g/	.	.
=68	=68	=68	=68	=68	=68	=68	=68	=68	=68	=68	=68
2r	.	.	2c\	no-	.	2F/	.	.	2a/	.	.
2C/	mi-	.	2e-\	.	.	2c\	-se-	.	2g/	-bis,	.
1G	.	.	4d\	.	.	4B-\	-re-	.	2r	.	.
.	.	.	4c\	.	.	4A/	.	.	.	.	.
.	.	.	2d\	.	.	2B-\	.	.	2d/	no-	.
=69	=69	=69	=69	=69	=69	=69	=69	=69	=69	=69	=69
2C/	.	.	2c\	-bis,	.	2c\	.	.	2e/	.	.
2D\	-se-	.	2r	.	.	2A/	.	.	2f/	.	.
2E-i\	-re-	.	2G/	no-	.	2c\	.	.	2g/	.	.
2D\	.	.	2A/	.	.	[2d\	.	.	[2f/	.	.
=70	=70	=70	=70	=70	=70	=70	=70	=70	=70	=70	=70
2BB-/	-re,	.	2B-\	.	.	2d\]	.	.	2f/]	.	.
2r	.	.	2c\	.	.	2c\	.	.	2e/	.	.
2BB-/	mi-	.	1B-	.	.	2d\	.	.	2f/	.	.
2E-i\	-se-	.	.	.	.	2e-\	.	.	2g/	.	.
=71	=71	=71	=71	=71	=71	=71	=71	=71	=71	=71	=71
2F\	-re-	.	2A/	.	.	1d	-re	.	2a/	.	.
2G\	.	.	2B-\	.	.	.	.	.	2.g/	.	.
2C/	.	.	2c\	.	.	4c\	no-	.	.	.	.
.	.	.	.	.	.	4B-\	.	.	4e/	.	.
[2F\	.	.	2d\	.	.	4A/	.	.	[2a/	.	.
.	.	.	.	.	.	4G/	.	.	.	.	.
=72	=72	=72	=72	=72	=72	=72	=72	=72	=72	=72	=72
2F\]	.	.	2.c\	.	.	2.F/	.	.	4a/]	.	.
.	.	.	.	.	.	.	.	.	4g/	.	.
2D\	-re	.	.	.	.	.	.	.	2a/	.	.
.	.	.	4A/	.	.	4G/	.	.	.	.	.
1D	no-	.	2.d\	.	.	1A	.	.	2.f#i/	.	.
.	.	.	4c\	.	.	.	.	.	4e/	.	.
=73	=73	=73	=73	=73	=73	=73	=73	=73	=73	=73	=73
0GGl	-bis.	.	0dl	.	.	0Gl	-bis.	.	0gl	-bis.	.
!!LO:TX:i:Y=40:rj:t=3 [Agnus] ut supra
=||	=||	=||	=||	=||	=||	=||	=||	=||	=||	=||	=||
*-	*-	*-	*-	*-	*-	*-	*-	*-	*-	*-	*-
!!!RDF**kern: l=long note in original notation
!!!RDF**kern: i=editorial accidental
!!!ENC:	Jesse Rodin 8/8/2013
!!!END:	2013/08/09/
!!!EED:	Jesse Rodin
!!!EEV:	2013/08/11/
!!!ONB:	Translated from MusicXML and edited on 2013/08/11/ by Craig Sapp
!!muse2ps: T^@{OPR}^u^@{ONM}{. }@{OTL}^C^@{COM}^i2I150v85,85,85,130Q16
